hosted/assets/icon/widgets/dark-mode/multi-select.svg

<svg width="50" height="50" viewBox="0 0 50 50" fill="none" xmlns="http://www.w3.org/2000/svg">
<path d="M9 4C9 2.89543 9.89543 2 11 2H21C22.1046 2 23 2.89543 23 4V14C23 15.1046 22.1046 16 21 16H11C9.89543 16 9 15.1046 9 14V4Z" fill="#3B9281"/>
<path fill-rule="evenodd" clip-rule="evenodd" d="M21 3.7H11C10.8343 3.7 10.7 3.83431 10.7 4V14C10.7 14.1657 10.8343 14.3 11 14.3H21C21.1657 14.3 21.3 14.1657 21.3 14V4C21.3 3.83431 21.1657 3.7 21 3.7ZM11 2C9.89543 2 9 2.89543 9 4V14C9 15.1046 9.89543 16 11 16H21C22.1046 16 23 15.1046 23 14V4C23 2.89543 22.1046 2 21 2H11Z" fill="white"/>
<path d="M9 20C9 18.8954 9.89543 18 11 18H21C22.1046 18 23 18.8954 23 20V30C23 31.1046 22.1046 32 21 32H11C9.89543 32 9 31.1046 9 30V20Z" fill="#3B9281"/>
<path fill-rule="evenodd" clip-rule="evenodd" d="M21 19.7H11C10.8343 19.7 10.7 19.8343 10.7 20V30C10.7 30.1657 10.8343 30.3 11 30.3H21C21.1657 30.3 21.3 30.1657 21.3 30V20C21.3 19.8343 21.1657 19.7 21 19.7ZM11 18C9.89543 18 9 18.8954 9 20V30C9 31.1046 9.89543 32 11 32H21C22.1046 32 23 31.1046 23 30V20C23 18.8954 22.1046 18 21 18H11Z" fill="white"/>
<path d="M9 36C9 34.8954 9.89543 34 11 34H21C22.1046 34 23 34.8954 23 36V46C23 47.1046 22.1046 48 21 48H11C9.89543 48 9 47.1046 9 46V36Z" fill="#3B9281"/>
<path fill-rule="evenodd" clip-rule="evenodd" d="M21 35.7H11C10.8343 35.7 10.7 35.8343 10.7 36V46C10.7 46.1657 10.8343 46.3 11 46.3H21C21.1657 46.3 21.3 46.1657 21.3 46V36C21.3 35.8343 21.1657 35.7 21 35.7ZM11 34C9.89543 34 9 34.8954 9 36V46C9 47.1046 9.89543 48 11 48H21C22.1046 48 23 47.1046 23 46V36C23 34.8954 22.1046 34 21 34H11Z" fill="white"/>
<path fill-rule="evenodd" clip-rule="evenodd" d="M18.5764 7.37542C18.9214 7.69383 18.9429 8.23159 18.6245 8.57654L15.9287 11.4969C15.5526 11.9044 14.9088 11.9044 14.5326 11.4969L13.3753 10.2432C13.0569 9.89826 13.0784 9.3605 13.4234 9.04208C13.7683 8.72367 14.3061 8.74518 14.6245 9.09013L15.2307 9.74683L17.3753 7.42346C17.6937 7.07851 18.2315 7.057 18.5764 7.37542Z" fill="white"/>
<path fill-rule="evenodd" clip-rule="evenodd" d="M18.5764 23.3754C18.9214 23.6938 18.9429 24.2316 18.6245 24.5765L15.9287 27.4969C15.5526 27.9044 14.9088 27.9044 14.5326 27.4969L13.3753 26.2432C13.0569 25.8983 13.0784 25.3605 13.4234 25.0421C13.7683 24.7237 14.3061 24.7452 14.6245 25.0901L15.2307 25.7468L17.3753 23.4235C17.6937 23.0785 18.2315 23.057 18.5764 23.3754Z" fill="white"/>
<path fill-rule="evenodd" clip-rule="evenodd" d="M18.5764 39.3754C18.9214 39.6938 18.9429 40.2316 18.6245 40.5765L15.9287 43.4969C15.5526 43.9044 14.9088 43.9044 14.5326 43.4969L13.3753 42.2432C13.0569 41.8983 13.0784 41.3605 13.4234 41.0421C13.7683 40.7237 14.3061 40.7452 14.6245 41.0901L15.2307 41.7468L17.3753 39.4235C17.6937 39.0785 18.2315 39.057 18.5764 39.3754Z" fill="white"/>
<path fill-rule="evenodd" clip-rule="evenodd" d="M25.1499 8.99999C25.1499 8.53055 25.5305 8.14999 25.9999 8.14999L40.9999 8.15C41.4693 8.15 41.8499 8.53055 41.8499 9C41.8499 9.46944 41.4693 9.85 40.9999 9.85L25.9999 9.84999C25.5305 9.84999 25.1499 9.46944 25.1499 8.99999Z" fill="white"/>
<path fill-rule="evenodd" clip-rule="evenodd" d="M25.1499 25C25.1499 24.5306 25.5305 24.15 25.9999 24.15L40.9999 24.15C41.4693 24.15 41.8499 24.5306 41.8499 25C41.8499 25.4694 41.4693 25.85 40.9999 25.85L25.9999 25.85C25.5305 25.85 25.1499 25.4694 25.1499 25Z" fill="white"/>
<path fill-rule="evenodd" clip-rule="evenodd" d="M25.1499 41C25.1499 40.5306 25.5305 40.15 25.9999 40.15L40.9999 40.15C41.4693 40.15 41.8499 40.5306 41.8499 41C41.8499 41.4694 41.4693 41.85 40.9999 41.85L25.9999 41.85C25.5305 41.85 25.1499 41.4694 25.1499 41Z" fill="white"/>
</svg>

<svg width="50" height="50" fill="none" xmlns="http://www.w3.org/2000/svg"><path d="M9 4a2 2 0 012-2h10a2 2 0 012 2v10a2 2 0 01-2 2H11a2 2 0 01-2-2V4z" fill="#3B9281"/><path fill-rule="evenodd" clip-rule="evenodd" d="M21 3.7H11a.3.3 0 00-.3.3v10a.3.3 0 00.3.3h10a.3.3 0 00.3-.3V4a.3.3 0 00-.3-.3zM11 2a2 2 0 00-2 2v10a2 2 0 002 2h10a2 2 0 002-2V4a2 2 0 00-2-2H11z" fill="#fff"/><path d="M9 20a2 2 0 012-2h10a2 2 0 012 2v10a2 2 0 01-2 2H11a2 2 0 01-2-2V20z" fill="#3B9281"/><path fill-rule="evenodd" clip-rule="evenodd" d="M21 19.7H11a.3.3 0 00-.3.3v10a.3.3 0 00.3.3h10a.3.3 0 00.3-.3V20a.3.3 0 00-.3-.3zM11 18a2 2 0 00-2 2v10a2 2 0 002 2h10a2 2 0 002-2V20a2 2 0 00-2-2H11z" fill="#fff"/><path d="M9 36a2 2 0 012-2h10a2 2 0 012 2v10a2 2 0 01-2 2H11a2 2 0 01-2-2V36z" fill="#3B9281"/><path fill-rule="evenodd" clip-rule="evenodd" d="M21 35.7H11a.3.3 0 00-.3.3v10a.3.3 0 00.3.3h10a.3.3 0 00.3-.3V36a.3.3 0 00-.3-.3zM11 34a2 2 0 00-2 2v10a2 2 0 002 2h10a2 2 0 002-2V36a2 2 0 00-2-2H11zm7.576-26.625a.85.85 0 01.049 1.202l-2.696 2.92a.95.95 0 01-1.396 0l-1.158-1.254a.85.85 0 111.25-1.153l.606.657 2.144-2.324a.85.85 0 011.201-.048zm0 16a.85.85 0 01.049 1.201l-2.696 2.92a.95.95 0 01-1.396 0l-1.158-1.253a.85.85 0 111.25-1.153l.606.657 2.144-2.323a.85.85 0 011.201-.049z" fill="#fff"/><path fill-rule="evenodd" clip-rule="evenodd" d="M18.576 39.375a.85.85 0 01.049 1.202l-2.696 2.92a.95.95 0 01-1.396 0l-1.158-1.254a.85.85 0 111.25-1.153l.606.657 2.144-2.324a.85.85 0 011.201-.048zM25.15 9c0-.47.38-.85.85-.85h15a.85.85 0 010 1.7H26a.85.85 0 01-.85-.85zm0 16c0-.47.38-.85.85-.85h15a.85.85 0 010 1.7H26a.85.85 0 01-.85-.85zm0 16c0-.47.38-.85.85-.85h15a.85.85 0 010 1.7H26a.85.85 0 01-.85-.85z" fill="#fff"/></svg>
